packages/connectors/hull-website/assets/logo.svg

<svg height="257" viewBox="0 0 257 257" width="257" xmlns="http://www.w3.org/2000/svg"><g fill="none" fill-rule="evenodd"><path d="m0 0h257v257h-257z" fill="#ffdbdb"/><path d="m117.991464 257c15.101478-20.777886 24.008536-46.348766 24.008536-74 0-69.587878-56.4121215-126-126-126-5.420075 0-10.76021822.3422282-16 1.0062549v-58.0062549h257v257z" fill="#ffa2a2"/><path d="m152.087541 0h104.912459v257h-257v-60.175445c17.8393869 9.67859 38.2777638 15.175445 60 15.175445 69.587878 0 126-56.412122 126-126 0-33.2454845-12.875692-63.48369-33.912459-86z" fill="#ff4c4c"/></g></svg>

<?xml version="1.0" encoding="UTF-8"?>
<svg width="257px" height="257px" viewBox="0 0 257 257" version="1.1" xmlns="http://www.w3.org/2000/svg" xmlns:xlink="http://www.w3.org/1999/xlink">
    <!-- Generator: Sketch 61 (89581) - https://sketch.com -->
    <title>website/logo</title>
    <desc>Created with Sketch.</desc>
    <g id="website/logo" stroke="none" stroke-width="1" fill="none" fill-rule="evenodd">
        <rect fill="#FFDBDB" x="0" y="0" width="257" height="257"></rect>
        <path d="M257,0 L257,257 L117.989482,257.002728 C133.092162,236.224352 142,210.652444 142,183 C142,113.412122 85.5878785,57 16,57 C10.5793799,57 5.23870749,57.3422971 -0.00158114386,58.0064553 L-2.84217094e-14,0 L257,0 Z" id="Combined-Shape" fill="#FFA2A2"></path>
        <path d="M257,-5.32907052e-15 L257,257 L0,257 L-0.000654834757,196.8242 C17.8389027,206.503014 38.2775065,212 60,212 C129.587878,212 186,155.587878 186,86 C186,52.753385 173.123433,22.5142535 152.085395,-0.00229693062 L257,-5.32907052e-15 Z" id="Combined-Shape" fill="#FF4C4C"></path>
    </g>
</svg>
